X:1
T:Kvarten
T:Sanctus
T:Franz Schubert
C:Franz Schubert
%%score [ 1 2 3 4 ]
L:1/8
Q:1/4=100
M:3/4
K:Bb
V:1 treble-8 nm="Tenor 1" snm="T1."
V:2 treble-8 nm="Tenor 2"
V:3 bass nm="Baryton"
V:4 bass nm="Bass"
V:1
!pp!"^Langsomt" d4 d2 | c4 d2 | e6 | d6 | c4 c2 | c4 d2 | (B6 | c4) z2 | d4!<(! d2 | c4!<)! d2 | %10
w: Hel- lig,|hel- lig,|hel-|lig|er vår|Her- re|Gud!|_|Hel- lig,|hel- lig,|
w: ||||||||||
!>(! e6!>)! | d6 | c4 c2 | c4 d2 | B6- | B2 z4 |!ff! f4 f2 | f4 f2 | g6 | e4 z2 | e4 f2 | d4 B2 | %22
w: hel-|lig|er Hans|all- makts|bud.|_|Han som|all- ting|skap-|te,|han som|e- vig|
w: ||||||2. Alt på|jord han|sty-|rer,|alt hans|øy- e|
!>(! c6- | c4!>)! z2 |!pp! d4 d2 | c4 B2 | e6 | d6 | g4 c2 | c4 d2 | B6- | B2 z4 |] %32
w: er,|_|Han skal|e- vig|rå-|de|o- ver|him- lens|hær.|_|
w: ser.|_|Hel- lig,|hel- lig,|hel-|lig,|hel- lig|Her- ren|er.|_|
V:2
!pp! B4 B2 | A4 B2 | B6 | B6 | B4 B2 | A4 A2 | (B6 | A4) z2 | B4!<(! B2 | A4!<)! B2 |!>(! B6!>)! | %11
w: Hel- lig,|hel- lig,|hel-|lig|er vår|Her- re|Gud!|_|Hel- lig,|hel- lig,|hel-|
w: |||||||||||
 B6 | B4 B2 | A4 A2 | B6- | B2 z4 |!ff! d4 d2 | d4 d2 | d6 | c4 z2 | c4 c2 | B4 B2 |!>(! A6- | %23
w: lig|er Hans|all- makts|bud.|_|Han som|all- ting|skap-|te,|han som|e- vig|er,|
w: |||||2. Alt på|jord han|sty-|rer,|alt hans|øy- e|ser.|
 A4!>)! z2 |!pp! _A4 A2 | _A4 A2 | (G4 =A2) | B6 | B4 B2 | B4 A2 | F6- | F2 z4 |] %32
w: _|Han skal|e- vig|rå- *|de|o- ver|him- lens|hær.|_|
w: _|Hel- lig,|hel- lig,|hel- *|lig,|hel- lig|Her- ren|er.|_|
V:3
!pp! F,4 F,2 | F,4 F,2 | G,6 | F,6 | G,4 G,2 | F,4 F,2 | (F,6 | F,4) z2 | F,4!<(! F,2 | %9
w: Hel- lig,|hel- lig,|hel-|lig|er vår|Her- re|Gud!|_|Hel- lig,|
w: |||||||||
 F,4!<)! _A,2 |!>(! G,6!>)! | F,6 | G,4 G,2 | F,4 E,2 | D,6- | D,2 z4 |!ff! D4 D2 | C4 C2 | =B,6 | %19
w: hel- lig,|hel-|lig|er Hans|all- makts|bud.|_|Han som|all- ting|skap-|
w: |||||||2. Alt på|jord han|sty-|
 G,4 z2 | A,4 F,2 | F,4 F,2 |!>(! F,6- | F,4!>)! z2 |!pp! F,4 F,2 | E,4 F,2 | (G,4 F,2) | F,6 | %28
w: te,|han som|e- vig|er,|_|Han skal|e- vig|rå- *|de|
w: rer,|alt hans|øy- e|ser.|_|Hel- lig,|hel- lig,|hel- *|lig,|
 G,4 G,2 | F,4 _E,2 | D,6- | D,2 z4 |] %32
w: o- ver|him- lens|hær.|_|
w: hel- lig|Her- ren|er|_|
V:4
!pp! B,,4 B,,2 | F,4 B,,2 | E,6 | B,,6 | E,4 E,2 | F,4 F,2 | (D,6 | F,4) z2 | B,,4!<(! B,,2 | %9
w: Hel- lig,|hel- lig,|hel-|lig|er vår|Her- re|Gud!|_|Hel- lig,|
w: |||||||||
 F,4!<)! F,2 |!>(! E,6!>)! | B,,6 | E,4 E,2 | F,4 F,,2 | B,,6- | B,,2 z4 |!ff! B,4 B,2 | _A,4 A,2 | %18
w: hel- lig,|hel-|lig|er Hans|all- makts|bud.|_|Han som|all- ting|
w: |||||||2. Alt på|jord han|
 G,6 | C,4 z2 | F,4 A,,2 | B,,4 D,2 |!>(! F,6- | F,4!>)! z2 |!pp! B,,4 B,,2 | C,4 D,2 | (E,4 C,2) | %27
w: skap-|te,|han som|e- vig|er,|_|Han skal|e- vig|rå- *|
w: sty-|rer,|alt hans|øy- e|ser.|_|Hel- lig,|hel- lig,|hel- *|
 B,,6 | E,4 =E,2 | F,4 F,,2 | B,,6- | B,,2 z4 |] %32
w: de|o- ver|him- lens|hær.|_|
w: lig,|hel- lig|Her- ren|er.|_|

